public/icons/wrench_icon.svg

<svg width="330" height="330" viewBox="0 0 330 330" fill="none" xmlns="http://www.w3.org/2000/svg">
<path d="M177.389 36.3207C182.289 35.9575 187.309 35.769 192.185 36.4998C195.166 36.9469 199.143 37.8763 200.921 40.5202C201.531 41.427 201.609 41.7357 201.36 42.7962C200.898 44.7648 199.558 46.8426 198.359 48.4579C194.868 53.1592 171.784 80.6249 168.451 82.7405C170.375 84.3591 181.987 106.783 182.274 109.458C191.587 111.774 201.486 113.477 210.568 116.495C215.535 113.627 236.971 82.7174 243.446 75.5704C244.578 74.3211 245.781 73.209 247.57 73.2442C248.883 73.27 250.078 74.0166 250.955 74.9497C256.636 80.9958 258.35 95.9932 257.943 104.016C256.662 129.299 240.983 152.634 217.229 161.971C209.299 165.089 197.268 165.029 191.701 172.128C187.643 177.303 184.709 183.815 181.579 189.589L165.06 220.037C162.854 224.089 160.31 230.375 156.938 233.431C156.648 235.702 135.571 274.274 132.797 278.493C127.655 286.314 120.489 292.256 111.157 294.133C102.46 295.929 93.4052 294.15 86.0352 289.195C73.5662 280.874 69.0177 266.486 71.7776 252.096C73.801 241.546 88.494 218.524 94.4647 207.847L119.988 161.92C123.679 155.259 129.661 146.762 130.624 139.147C131.78 130.017 125.273 119.7 123.468 110.589C120.328 94.7435 124.072 77.261 133.132 63.9468C143.455 48.7773 159.584 39.6145 177.389 36.3207Z" fill="black"/>
<path d="M179.66 44.1415C182.496 43.8649 188.117 43.0956 190.613 44.678C189.903 46.8617 187.02 49.4447 185.473 51.2531C180.779 56.737 163.167 75.3797 161.675 81.0491C160.344 86.1029 170.638 104.312 173.504 109.488C176.126 114.224 179.599 116.934 184.825 118.365C189.914 119.758 211.16 126.047 215.041 123.55C218.423 121.374 246.007 86.1931 246.539 83.4196C249.882 87.8577 249.826 99.8405 249.501 105.521C249.464 106.19 249.414 106.858 249.351 107.525C247.386 128.819 233.416 147.116 213.386 154.625C203.55 158.309 192.236 158.308 185.212 167.28C181.061 172.58 178.131 179.19 174.914 185.102L158.499 215.18C156.37 219.065 153.958 225.037 150.71 227.955C150.655 230.132 128.344 270.574 125.482 274.859C121.461 280.878 115.977 285.075 108.725 286.441C102.265 287.657 95.5086 285.88 90.1473 282.168C80.3001 275.352 77.509 263.598 80.0783 252.341C81.8549 244.555 87.3212 237.289 91.1645 230.334L120.99 176.736C126.053 167.586 131.886 158.322 136.026 148.718C137.306 145.75 138.305 142.702 138.684 139.481C139.988 128.385 133.291 119.806 131.363 109.308C128.779 94.8558 131.984 79.9687 140.284 67.8577C149.581 54.5127 163.947 46.9755 179.66 44.1415Z" fill="#FEFEFE"/>
<path d="M101.063 246.189C109.221 244.306 117.381 249.313 119.397 257.436C121.412 265.56 116.538 273.798 108.445 275.944C103.092 277.364 97.3892 275.789 93.5256 271.822C89.662 267.856 88.237 262.115 89.7992 256.803C91.3614 251.492 95.6668 247.435 101.063 246.189Z" fill="black"/>
<path d="M102.147 253.684C103.448 253.539 104.744 253.411 106.032 253.721C108.202 254.245 110.321 255.751 111.458 257.676C112.441 259.311 112.698 261.282 112.167 263.114C111.369 265.882 109.232 267.142 106.852 268.377C105.674 268.679 104.583 268.876 103.364 268.689C101.414 268.39 99.4664 267.386 98.313 265.756C97.0426 263.961 96.7563 261.694 97.2 259.571C97.8242 256.584 99.7537 255.216 102.147 253.684Z" fill="#FEFEFE"/>
</svg>

<svg xmlns="http://www.w3.org/2000/svg" width="330" height="330" fill="none" viewBox="0 0 330 330"><path fill="#000" d="M177.389 36.32c4.9-.362 9.92-.551 14.796.18 2.981.447 6.958 1.376 8.736 4.02.61.907.688 1.216.439 2.276-.462 1.969-1.802 4.047-3.001 5.662-3.491 4.701-26.575 32.167-29.908 34.283 1.924 1.618 13.536 24.042 13.823 26.717 9.313 2.316 19.212 4.019 28.294 7.037 4.967-2.868 26.403-33.778 32.878-40.925 1.132-1.249 2.335-2.361 4.124-2.326 1.313.026 2.508.773 3.385 1.706 5.681 6.046 7.395 21.043 6.988 29.066-1.281 25.283-16.96 48.618-40.714 57.955-7.93 3.118-19.961 3.058-25.528 10.157-4.058 5.175-6.992 11.687-10.122 17.461l-16.519 30.448c-2.206 4.052-4.75 10.338-8.122 13.394-.29 2.271-21.367 40.843-24.141 45.062-5.142 7.821-12.308 13.763-21.64 15.64a33.05 33.05 0 0 1-25.122-4.938c-12.469-8.321-17.017-22.709-14.257-37.099 2.023-10.55 16.716-33.572 22.687-44.249l25.523-45.927c3.691-6.661 9.673-15.158 10.636-22.773 1.156-9.13-5.351-19.447-7.156-28.558-3.14-15.846.604-33.328 9.664-46.642 10.323-15.17 26.452-24.333 44.257-27.626"/><path fill="#fefefe" d="M179.66 44.142c2.836-.277 8.457-1.046 10.953.536-.71 2.184-3.593 4.767-5.14 6.575-4.694 5.484-22.306 24.127-23.798 29.796-1.331 5.054 8.963 23.263 11.829 28.439 2.622 4.736 6.095 7.446 11.321 8.877 5.089 1.393 26.335 7.682 30.216 5.185 3.382-2.176 30.966-37.357 31.498-40.13 3.343 4.438 3.287 16.42 2.962 22.101a55.78 55.78 0 0 1-36.115 49.104c-9.836 3.684-21.15 3.683-28.174 12.655-4.151 5.3-7.081 11.91-10.298 17.822l-16.415 30.078c-2.129 3.885-4.541 9.857-7.789 12.775-.055 2.177-22.366 42.619-25.228 46.904-4.021 6.019-9.505 10.216-16.757 11.582-6.46 1.216-13.216-.561-18.578-4.273-9.847-6.816-12.638-18.57-10.069-29.827 1.777-7.786 7.243-15.052 11.087-22.007l29.825-53.598c5.063-9.15 10.896-18.414 15.036-28.018 1.28-2.968 2.279-6.016 2.658-9.237 1.304-11.096-5.393-19.675-7.321-30.173a55.9 55.9 0 0 1 8.921-41.45c9.297-13.345 23.663-20.883 39.376-23.717"/><path fill="#000" d="M101.063 246.189c8.158-1.883 16.318 3.124 18.334 11.247 2.015 8.124-2.859 16.362-10.952 18.508a15.34 15.34 0 0 1-14.92-4.122 15.326 15.326 0 0 1 7.538-25.633"/><path fill="#fefefe" d="M102.147 253.684c1.301-.145 2.597-.273 3.885.037 2.17.524 4.289 2.03 5.426 3.955a6.85 6.85 0 0 1 .709 5.438c-.798 2.768-2.935 4.028-5.315 5.263-1.178.302-2.269.499-3.488.312-1.95-.299-3.898-1.303-5.051-2.933-1.27-1.795-1.557-4.062-1.113-6.185.624-2.987 2.554-4.355 4.947-5.887"/></svg>
